!!!!SEGMENT: pl-kk--kk-i-67--002_anonim--missa-et-in-terra.krn
!!!cenid: 17xx:2268
!!!COM: Anonim
!!!COM-rismID:
!!!CDT:
!!!CNT:
!!!OPR: Missa
!!!OTL: Et in terra
!!!OMV: 002
!!!PDT:
!!!AGN: Sacred; Mass
!!!SMS-siglum: PL-Kk
!!!SMS-shelfmark: Kk.I.67
!!!SMS-shelfwork: 001-002 M
!!!SMS-variant:
!!!SMS-altvar:
!!!NIFC-rismSourceID: 1001154623
!!!NIFC-islandoraID: pl-kk:2825
!!!URL-pdf-islandora: https://repozytorium.nifc.pl/islandora/object/pl-kk%3A2825/datastream/PDF/view
!!!URL-scan: https://polish.musicsources.pl/pl/lokalizacje/galeria/rekopisy/6138 @EN{Scan on Polish Music Herritage in Open Access Website} @PL{Skany w portalu Dziedzictwo Muzyki Polskiej w otwartym dostępie}
!!!ONB-nifc: UWAGA: części Mszy: 1. Kyrie, 2. Et in terra, 3. Credo, 4. Sanctus, 5. Agnus Dei, 6. Dona nobis
!!!AIN: 1 alto 1 empty 1 tenor 1 vox
!!!key:
**kern	**text	**dynam	**kern	**text	**kern	**text	**kern	**text
*part4	*part4	*part4	*part3	*part3	*part2	*part2	*part1	*part1
*staff4	*staff4	*	*staff3	*staff3	*staff2	*staff2	*staff1	*staff1
*Iempty	*	*	*Itenor	*	*Ialto	*	*Ivox	*
*I"Baſsô	*	*	*I"Tenore	*	*I"Altô	*	*I"Cantô	*
*I'B	*	*	*I'T	*	*I'A	*	*I'S	*
*clefF4	*	*	*clefC4	*	*clefC3	*	*clefC1	*
*k[]	*	*	*k[]	*	*k[]	*	*k[]	*
*C:	*	*	*C:	*	*C:	*	*C:	*
*M2/2	*	*	*M2/2	*	*M2/2	*	*M2/2	*
*met(c|)	*	*	*met(c|)	*	*met(c|)	*	*met(c|)	*
*2\right	*	*	*2\right	*	*2\right	*	*2\right	*
=1	=1	=1	=1	=1	=1	=1	=1	=1
!LO:TX:a:t=and	!	!	!LO:TX:a:t=andte	!	!LO:TX:t=P::problem=przy kluczu kasowniki odnoszące się do tonacji poprzedniej części (Kyrie)&colon;en, an, Bn	!	!LO:TX:a:t=andte	!
!LO:TX:t=P::problem=przy kluczu kasowniki odnoszące się do tonacji poprzedniej części (Kyrie)&colon;En, An, BBn	!	!	!LO:TX:t=P::problem=przy kluczu kasowniki odnoszące się do tonacji poprzedniej części (Kyrie)&colon;Bn, en, An	!	!	!	!	!
4.c\	Et	.	4.c\	Et	4.g\	Et	4.ee\	Et
8G\	.	.	8B\	.	8f\	.	8dd\	.
4E\	.	.	4G\	.	4e\	.	4cc\	.
4G\	in	.	4B\	in	8f\L	in	8dd\L	in
.	.	.	.	.	16e\L	.	16cc\L	.
.	.	.	.	.	16f\JJ	.	16dd\JJ	.
=2	=2	=2	=2	=2	=2	=2	=2	=2
4c\	ter-	.	4c\	ter-	4g\	ter-	4ee\	ter-
4C/	-ra	.	4G/	-ra	4e\	-ra	4cc\	-ra
4r	.	.	4r	.	4r	.	4r	.
4C/	in	.	4G/	in	4e\	in	4cc\	in
=3	=3	=3	=3	=3	=3	=3	=3	=3
4D/	ter-	.	2.G/	ter-	8d\L	ter-	8b\L	ter-
.	.	.	.	.	8f\	.	8dd\	.
2C/	.	.	.	.	8e\	.	8cc\	.
.	.	.	.	.	8g\J	.	8ee\J	.
.	.	.	.	.	4g\	-ra	4ee\	.
4GG/	-ra	.	4B/	-ra	4f\	.	4dd\	-ra
=4	=4	=4	=4	=4	=4	=4	=4	=4
2C/	pax	.	2G/	pax	2e\	pax	2cc\	pax
2c\	pax	.	2c\	pax	2g\	pax	2ee\	pax
=5	=5	=5	=5	=5	=5	=5	=5	=5
2F\	ho-	.	2A/	ho-	8g\L	ho-	8ee\L	ho-
.	.	.	.	.	8f\	.	8dd\J	.
.	.	.	.	.	8a\	.	8ff\L	.
.	.	.	.	.	8g\J	.	8ee\J	.
4F\	-mi-	.	4A/	-mi-	8g\L	-mi-	8ee\L	-mi-
.	.	.	.	.	8f\J	.	8dd\J	.
4F#X\	-ni-	.	4A/	-ni-	8f\L	-ni-	8dd\L	-ni-
.	.	.	.	.	8e\J	.	8cc\J	.
=6	=6	=6	=6	=6	=6	=6	=6	=6
!	!	!	!	!	!LO:LB:g=original	!	!LO:LB:g=original	!
.	.	.	.	.	.	.	8qqcc	.
2G\	-bus,	.	2G/	-bus	2d\	-bus	2b\	-bus
4G\	bo-	.	8B/L	bo-	8f\L	bo-	8dd\L	bo-
.	.	.	8G/J	.	8d\J	.	8b\J	.
4GG/	-nae	.	4G/	-nae	8e\L	-nae	8cc\L	-nae
.	.	.	.	.	8f\J	.	8dd\J	.
=7	=7	=7	=7	=7	=7	=7	=7	=7
!LO:LB:g=original	!	!	!LO:LB:g=original	!	!	!	!	!
8C/L	vo-	.	2G/	vo-	8e\L	vo-	8cc\L	vo-
8BB/	.	.	.	.	8f\	.	8dd\	.
8C/	.	.	.	.	8e\	.	8cc\	.
8BB/J	.	.	.	.	8f\J	.	8dd\J	.
2C/	-lun-	.	2G/	-lun-	2g\	-lun-	2ee\	-lun-
=8	=8	=8	=8	=8	=8	=8	=8	=8
2G\	-ta-	.	4B\	-ta-	4g\	-ta-	4dd\	-ta-
.	.	.	8G\L	.	8d\L	.	8b\L	.
.	.	.	8A\J	.	8e\J	.	8cc\J	.
2GG/	.	.	8B\L	.	8f\L	.	8dd\L	.
.	.	.	8A\	.	8e\	.	8cc\	.
.	.	.	8B\	.	8f\	.	8dd\	.
.	.	.	8G\J	.	8d\J	.	8b\J	.
=9	=9	=9	=9	=9	=9	=9	=9	=9
4C/	-tis	.	4G/	-tis	4e\	-tis	4cc\	-tis
8C/L	Lau-	.	4c\	lau-	8g\L	lau-	8ee\L	Lau-
8E/J	.	.	.	.	8e\J	.	8cc\J	.
4C/	-da-	.	4G/	-da-	4c/	-da-	4ee\	-da-
4C/	-mus	.	4G/	-mus	4B-X/	-mus	4ee\	-mus
=10	=10	=10	=10	=10	=10	=10	=10	=10
4F\	te,	.	4A/	te,	4A/	te	4ff\	te,
8D\	be-	.	8A/	be-	8a\	be-	8ff#X\	be-
8F#X\	-ne-	.	8A/	-ne-	8f#X\	-ne-	8dd\	-ne-
4D\	-di-	.	4A/	-di-	4d\	-di-	4ff#\	-di-
8D\	-ci-	.	8A/	-ci-	8c\	-ci-	8ff#\	-ci-
8D\	-mus	.	8A/	-mus	8c\	-mus	8ff#\	-mus
=11	=11	=11	=11	=11	=11	=11	=11	=11
!	!	!	!	!	!LO:LB:g=original	!	!LO:LB:g=original	!
2G\	te.	.	2d\	te	2Bn/	te	2gg\	te
4G\	a-	.	8B\L	a-	8d\L	a-	8ffn\L	a-
.	.	.	8c\J	.	8e\J	.	8ee\J	.
4G\	-do-	.	8B\L	-do-	8d\L	-do-	8dd\L	-do-
.	.	.	8c\J	.	8e\J	.	8cc\J	.
=12	=12	=12	=12	=12	=12	=12	=12	=12
!	!	!	!LO:LB:g=original	!	!	!	!	!
2.G\	-ra-	.	8B\L	-ra-	8f\L	-ra-	8dd\L	-ra-
.	.	.	8A\	.	8e\	.	8cc\	.
.	.	.	8G\	.	8d\	.	8b\	.
.	.	.	8A\J	.	8e\J	.	8cc\J	.
.	.	.	4B\	.	8f\L	.	8dd\L	.
.	.	.	.	.	8a\J	.	8ff\J	.
4GG/	-mus	.	8c\L	-mus	8g\L	-mus	8ee\L	-mus
.	.	.	8B\J	.	8f\J	.	8dd\J	.
=13	=13	=13	=13	=13	=13	=13	=13	=13
!LO:LB:g=original	!	!	!	!	!	!	!	!
2C/	te	.	2G/	te,	2e\	te	2cc\	te
.	.	.	.	.	.	.	8qqee/	.
4GG/	glo-	.	4B/	glo-	4f\	glo-	4dd\	glo-
8G\	-ri-	.	8G/	-ri-	8e\	-ri-	8cc\	-ri-
8G\	-fi-	.	8G/	-fi-	8d\	-fi-	8b\	-fi-
=14	=14	=14	=14	=14	=14	=14	=14	=14
4C/	-ca-	.	4G/	-ca-	8e\L	-ca-	8cc\L	-ca-
.	.	.	.	.	16d\L	.	16b\L	.
.	.	.	.	.	16e\JJ	.	16cc\JJ	.
4GG/	.	.	4B/	.	8f\L	.	8dd\L	.
.	.	.	.	.	16e\L	.	16cc\L	.
.	.	.	.	.	16f\JJ	.	16dd\JJ	.
4C/	.	.	2c\	.	8g\L	.	8ee\L	.
.	.	.	.	.	16f\L	.	16dd\L	.
.	.	.	.	.	16g\JJ	.	16ee\JJ	.
4F\	.	.	.	.	8a\L	.	8ff\L	.
.	.	.	.	.	16g\L	.	16ee\L	.
.	.	.	.	.	16f\JJ	.	16dd\JJ	.
=15	=15	=15	=15	=15	=15	=15	=15	=15
!	!	!	!	!	!LO:LB:g=original	!	!LO:LB:g=original	!
8G\L	.	.	2G/	.	2e\	.	2cc\	.
8F\	.	.	.	.	.	.	.	.
8E\	.	.	.	.	.	.	.	.
8F\J	.	.	.	.	.	.	.	.
4G\	.	.	2G/	-mus	2d\	-mus	2b\	-mus
4GG/	-mus	.	.	.	.	.	.	.
=16	=16	=16	=16	=16	=16	=16	=16	=16
4C/	te	.	4G/	te,	4e\	te	4cc\	te
4G\	glo-	.	4G/	glo-	4d\	glo-	4b\	glo-
4G\	-ri-	.	4G/	-ri-	4d\	-ri-	4b\	-ri-
4G\	-fi-	.	4G/	-fi-	4d\	-fi-	4b\	-fi-
=17	=17	=17	=17	=17	=17	=17	=17	=17
4C/	-ca-	.	4G/	-ca-	8e\L	-ca-	8cc\L	-ca-
.	.	.	.	.	16d\L	.	16b\L	.
.	.	.	.	.	16e\JJ	.	16cc\JJ	.
4GG/	.	.	4B\	.	8f\L	.	8dd\L	.
.	.	.	.	.	16e\L	.	16cc\L	.
.	.	.	.	.	16f\JJ	.	16dd\JJ	.
4C/	.	.	2c\	.	8g\L	.	8ee\L	.
.	.	.	.	.	16f\L	.	16dd\L	.
.	.	.	.	.	16g\JJ	.	16ee\JJ	.
4F\	.	.	.	.	8a\L	.	8ff\L	.
.	.	.	.	.	16g\L	.	16ee\L	.
.	.	.	.	.	16f\JJ	.	16dd\JJ	.
=18	=18	=18	=18	=18	=18	=18	=18	=18
!	!	!	!LO:LB:g=original	!	!	!	!	!
8G\L	.	.	2G/	.	2e\	.	2cc\	.
8F\	.	.	.	.	.	.	.	.
8E\	.	.	.	.	.	.	.	.
8F\J	.	.	.	.	.	.	.	.
4G\	.	.	2G/	-mus	2d\	-mus	2b\	-mus
4GG/	-mus	.	.	.	.	.	.	.
=19	=19	=19	=19	=19	=19	=19	=19	=19
1C	te	.	1G	te	1e	te	1cc	te
=20||	=20||	=20||	=20||	=20||	=20||	=20||	=20||	=20||
*M3/4	*	*	*M3/4	*	*M3/4	*	*M3/4	*
!LO:TX:a:t=and:	!	!	!	!	!	!	!	!
!LO:TX:t=P:mixedbeam:problem	!	!	!	!	!LO:TX:a:t=andte	!	!LO:TX:a:t=andte	!
!	!	!	!	!	!LO:LB:g=original	!	!LO:LB:g=original	!
!LO:LB:g=original	!	!	!LO:LB:g=original	!	!	!	!	!
8A\L	Gra-	.	4.A\	Gra-	4.e\	Gra-	4.cc\	Gra-
8AA/J	.	.	.	.	.	.	.	.
8C/	.	.	.	.	.	.	.	.
8E/	-ti-	.	8A\	-ti-	8e\	-ti-	8cc\	-ti-
4A\	-as	.	4A\	-as	4e\	-as	4cc\	-as
=21	=21	=21	=21	=21	=21	=21	=21	=21
8G#X\L	a-	.	4.B\	a-	4.e\	a-	4.dd\	a-
8E\J	.	.	.	.	.	.	.	.
8G#\L	-gi-	.	.	.	.	.	.	.
8B\J	.	.	8B\	-gi-	8e\	-gi-	8dd\	-gi-
8G#\L	-mus	.	4B\	-mus	4e\	-mus	4dd\	-mus
8E\J	.	.	.	.	.	.	.	.
=22	=22	=22	=22	=22	=22	=22	=22	=22
4A\	ti-	.	2.A/	ti-	2e\	ti-	2.cc\	ti-
!LO:SIC:v:s=4F#\	!	!	!	!	!	!	!	!
4F\	.	.	.	.	.	.	.	.
4D#X\	.	.	.	.	4f#X\	.	.	.
=23	=23	=23	=23	=23	=23	=23	=23	=23
2E\	-bi	.	2G#X/	-bi	2e\	-bi	2b\	-bi
4r	.	.	4r	.	4r	.	4r	.
=24	=24	=24	=24	=24	=24	=24	=24	=24
2G#X\	pro-	.	2B\	pro-	2fn\	pro-	2dd\	pro-
4A\	-pter	.	4A\	-pter	4e\	-pter	4cc\	-pter
=25	=25	=25	=25	=25	=25	=25	=25	=25
4B\	ma-	.	2d\	ma-	2g#X\	ma-	2ee\	ma-
4E\	.	.	.	.	.	.	.	.
4A\	-gnam	.	4c\	-gnam	4a\	-gnam	4ee\	-gnam
=26	=26	=26	=26	=26	=26	=26	=26	=26
!LO:LB:g=original	!	!	!	!	!LO:LB:g=original	!	!	!
4.FnX\	glo-	.	4.G#X/	glo-	4.d\	glo-	4.b\	glo-
8F\	-ri-	.	8G#/	-ri-	8d\	-ri-	8b\	-ri-
4F\	-am	.	4G#/	-am	4d\	-am	4b\	-am
=27	=27	=27	=27	=27	=27	=27	=27	=27
!	!	!	!LO:SIC:v:s=4G#/	!	!	!	!LO:LB:g=original	!
!	!	!	!LO:LB:g=original	!	!	!	!	!
4F\	tu-	.	4G/	tu-	4d\	tu-	4b\	tu-
2E\	.	.	4A/	.	2e\	.	4cc\	.
!	!	!	!LO:SIC:v:s=4G#/	!	!	!	!	!
.	.	.	4G/	.	.	.	4b\	.
=28	=28	=28	=28	=28	=28	=28	=28	=28
2AA/	-am	.	2A/	-am	2e\	-am	2cc\	-am
4r	.	.	4r	.	4r	.	4r	.
=29	=29	=29	=29	=29	=29	=29	=29	=29
!LO:N:vis=00	!	!	!	!	!	!	!	!
0.r	.	.	4.c\	Do-	4.g\	Do-	4.ee\	Do-
.	.	.	8B\	-mi-	8f\	-mi-	8dd\	-mi-
.	.	.	4Gn/	-ne	4e\	-ne	4cc\	-ne
=30-	=30	=30	=30	=30	=30	=30	=30	=30
.	.	.	2G/	De-	4d\	De-	4b\	De-
.	.	.	.	.	4e\	.	4cc\	.
.	.	.	4G/	-us	4f\	-us	4dd\	-us
=31-	=31	=31	=31	=31	=31	=31	=31	=31
.	.	.	4G/	rex	8e\L	rex	8cc\L	rex
.	.	.	.	.	16f\L	.	16dd\L	.
.	.	.	.	.	16g\JJ	.	16ee\JJ	.
.	.	.	4B/	.	4f\	.	4dd\	.
.	.	.	4c/	cae-	4e\	cae-	4cc\	cae-
=32-	=32	=32	=32	=32	=32	=32	=32	=32
.	.	.	4G/	-les-	4e\	-les-	4cc\	-les-
.	.	.	4G/	-tis	4d\	-tis	4b\	-tis
.	.	.	4r	.	4r	.	4r	.
=33-	=33	=33	=33	=33	=33	=33	=33	=33
!LO:N:vis=0	!	!	!	!	!LO:LB:g=original	!	!	!
1.r	.	.	2A/	De-	2f\	De-	2cc\	De-
.	.	.	4G/	-us	4e\	-us	4cc\	-us
=34-	=34	=34	=34	=34	=34	=34	=34	=34
!	!	!	!	!	!	!	!LO:LB:g=original	!
.	.	.	2F/	Pa-	2d\	Pa-	2b\	Pa-
.	.	.	4E/	-ter	4c\	-ter	4g\	-te
=35-	=35	=35	=35	=35	=35	=35	=35	=35
!LO:N:vis=1	!	!	!LO:LB:g=original	!	!	!	!	!
2.r	.	.	4A/	om-	4f\	om-	4dd\	om-
.	.	.	4G/	-ni-	4e\	-ni-	4cc\	-ni-
.	.	.	4G/	-po-	4d\	-po-	4b\	-po-
=36	=36	=36	=36	=36	=36	=36	=36	=36
4r	.	.	4G/	-tens	4e\	-tens	4cc\	-tens
8C/L	Do-	.	8G/L	Do-	8e\L	Do-	4r	.
8E/J	.	.	8c/J	.	8g\J	.	.	.
8D/	-mi-	.	8c/	-mi-	8f\	-mi-	4r	.
8C/	-ne	.	8G/	-ne	8e\	-ne	.	.
=37	=37	=37	=37	=37	=37	=37	=37	=37
2G\	fi-	.	2c\	fi-	2e\	fi-	2.r	.
4GG/	-li	.	4B\	-li	4d\	-li	.	.
=38	=38	=38	=38	=38	=38	=38	=38	=38
4GG/	u-	.	4B\	u-	4d\	u-	4ff\	u-
4C/	.	.	4G/	.	4c\	.	4ee\	.
4GG/	-ni-	.	4G/	-ni-	4B\	-ni-	4dd\	-ni-
=39	=39	=39	=39	=39	=39	=39	=39	=39
!LO:LB:g=original	!	!	!	!	!	!	!	!
4.C/	-ge-	.	4.G/	-ge-	4.c\	-ge-	4.ee\	-ge-
8GG/	-ni-	.	8B/	-ni-	8d\	-ni-	8ff\	-ni-
4C/	-te	.	4c\	-te	4e\	-te	4gg\	-te
=40	=40	=40	=40	=40	=40	=40	=40	=40
!	!	!	!	!	!LO:LB:g=original	!	!	!
8F\L	Je-	.	2c\	Je-	2a\	Je-	2ff/	Je-
8G\	.	.	.	.	.	.	.	.
8A\	.	.	.	.	.	.	.	.
8B\J	.	.	.	.	.	.	.	.
4c\	-su	.	4c\	-su	4g\	-su	4ee/	-su
=41	=41	=41	=41	=41	=41	=41	=41	=41
2G\	Je-	.	8B\L	Je-	8f\L	Je-	8dd\L	Je-
.	.	.	8G\	.	8d\	.	8b\	.
.	.	.	8A\	.	8e\	.	8cc\	.
.	.	.	8B\J	.	8f\J	.	8dd\J	.
4C/	-su	.	4c\	-su	4g\	-su	4ee\	-su
=42	=42	=42	=42	=42	=42	=42	=42	=42
!	!	!	!	!	!	!	!LO:LB:g=original	!
4F\	Chri-	.	4A/	Chri-	8a\L	Chri-	8ff\L	Chri-
.	.	.	.	.	16g\L	.	16ee\L	.
.	.	.	.	.	16f\JJ	.	16dd\JJ	.
4G\	.	.	2G/	.	4e\	.	4cc\	.
4GG/	.	.	.	.	4d\	.	4b\	.
=43	=43	=43	=43	=43	=43	=43	=43	=43
4C/	-ste.	.	4G/	-ste	4e\	-ste.	4cc\	-ste.
8C/L	Do-	.	4c\	Do-	4e\	Do-	4gg\	Do-
8E/J	.	.	.	.	.	.	.	.
8D/	-mi-	.	8B\	-mi-	8d\	-mi-	8ff\	-mi-
8C/	-ne	.	8c\	-ne	8c\	-ne	8ee\	-ne
=44	=44	=44	=44	=44	=44	=44	=44	=44
8G\L	De-	.	2G/	De-	2c/	De-	2ee\	De-
8D\J	.	.	.	.	.	.	.	.
8BB/L	.	.	.	.	.	.	.	.
8D/J	.	.	.	.	.	.	.	.
4GG/	-us	.	4G/	-us	4B/	-us	4dd\	-us
=45	=45	=45	=45	=45	=45	=45	=45	=45
!LO:LB:g=original	!	!	!	!	!	!	!	!
4GG/	a-	.	2G/	a-	4B/	a-	4dd\	a-
4G\	.	.	.	.	4c/	.	4ee\	.
4G\	-gnus	.	4B\	-gnus	4d/	-gnus	4ff\	-gnus
=46	=46	=46	=46	=46	=46	=46	=46	=46
!	!	!	!	!	!LO:LB:g=original	!	!	!
8c\L	De-	.	4.c\	De-	4.e\	De-	4.gg\	De-
8G\J	.	.	.	.	.	.	.	.
8E\L	.	.	.	.	.	.	.	.
8G\J	.	.	8B\	.	8d\	.	8ff\	.
4C/	-i	.	4G/	-i	4c\	-i	4ee\	-i
=47	=47	=47	=47	=47	=47	=47	=47	=47
!LO:TX:t=P:problem=mixedbeam	!	!	!	!	!	!	!	!
8G\L	Fi-	.	4.B\	Fi-	4.f\	Fi-	4.dd\	Fi-
8GG/J	.	.	.	.	.	.	.	.
8AA/L	-li-	.	.	.	.	.	.	.
8BB/J	.	.	8B\	-li-	8f\	-li-	8dd\	-li-
4C/	-us	.	4c\	-us	4g\	-us	4ee\	-us
=48	=48	=48	=48	=48	=48	=48	=48	=48
!	!	!	!	!	!	!	!LO:PB:g=original	!
8F\L	Fi-	.	4.c\	Fi-	4.a\	fi-	4.ff\	Fi-
8G\J	.	.	.	.	.	.	.	.
8A\L	-li-	.	.	.	.	.	.	.
8B\J	.	.	8d\	-li-	8a\	-li-	8ff\	-li-
4c\	-us	.	4c\	-us	4g\	-us	4ee\	-us
=49	=49	=49	=49	=49	=49	=49	=49	=49
!	!	!	!LO:PB:g=original	!	!	!	!	!
8c\L	Pa-	.	8c\L	Pa-	8g\L	Pa-	8ee\L	Pa-
8F\J	.	.	8A\J	.	16a\L	.	16ff\L	.
.	.	.	.	.	16f\JJ	.	16dd\JJ	.
4G\	.	.	2G/	.	4e\	.	4cc\	.
4GG/	.	.	.	.	4d\	.	4b\	.
=50	=50	=50	=50	=50	=50	=50	=50	=50
4C/	-tris	.	4G/	-tris	4e\	-tris	4cc\	-tris
4r	.	.	4r	.	4r	.	4r	.
!LO:TX:t=ada	!	!	!LO:TX:a:t=adagio	!	!LO:TX:a:t=ada.	!	!LO:TX:a:t=adagio	!
4c\	Qui	.	4c\	qui	4g\	Qui	4ee\	Qui
=51	=51	=51	=51	=51	=51	=51	=51	=51
4B-X\	tol-	.	4c\	tol-	4g\	tol-	4ee\	tol-
4B-\	-lis	.	4c\	-lis	4g\	-lis	4ee\	-lis
8r	.	.	8r	.	8r	.	8r	.
8B-\	pec-	.	8c\	pec-	8g\	pec-	8ee\	pec-
=52	=52	=52	=52	=52	=52	=52	=52	=52
!LO:LB:g=original	!	!	!	!	!LO:PB:g=original	!	!	!
4B-X\	-ca-	.	4c\	-ca-	4g\	-ca-	4ee\	-ca-
4B-\	-ta	.	4c\	-ta	4g\	-ta	4ee\	-ta
8r	.	.	8r	.	8r	.	8r	.
8B-\	pec-	.	8c\	pec-	8g\	pec-	8ee\	pec-
=53	=53	=53	=53	=53	=53	=53	=53	=53
4A\	-ca-	.	2c\	-ca-	4a\	-ca-	4ff\	-ca-
4G\	.	.	.	.	4b-X\	.	4ee\	.
16F\LL	-ta	.	4c\	-ta	4a\	-ta	4ff\	-ta
16G\	.	.	.	.	.	.	.	.
16A\	.	.	.	.	.	.	.	.
16B\JJ	.	.	.	.	.	.	.	.
=54	=54	=54	=54	=54	=54	=54	=54	=54
4c\	mun-	.	4c\	mun-	4a\	mun-	4ff\	mun-
4C/	-di	.	4c\	-di	4g\	-di	4ee\	-di
4r	.	.	4r	.	4r	.	4r	.
=55	=55	=55	=55	=55	=55	=55	=55	=55
!	!	!	!	!	!	!	!LO:LB:g=original	!
2C#X/	mi-	.	2B-X\	mi-	2g\	mi-	2ee\	mi-
4C#/	-se-	.	4B-\	-se-	4g\	-se-	4ee\	-se-
=56	=56	=56	=56	=56	=56	=56	=56	=56
4D\	-re-	.	4d\	-re-	4a\	-re-	4ff\	-re-
4E\	.	.	4B\	.	4g\	.	4ee\	.
4F\	-re	.	4A\	-re	4f\	-re	4dd\	-re
=57	=57	=57	=57	=57	=57	=57	=57	=57
!	!	!	!LO:LB:g=original	!	!	!	!	!
4G\	no-	.	4B-X\	no-	4g\	no-	4ee\	no-
4A\	.	.	2A\	.	4f\	.	4dd\	.
4AA/	.	.	.	.	4e\	.	4cc#X\	.
=58	=58	=58	=58	=58	=58	=58	=58	=58
4D/	-bis	.	4A\	-bis	4f\	-bis	4dd\	-bis.
4r	.	.	4r	.	4r	.	4r	.
4D/	Qui	.	4A\	qui	4f#X\	qui	4dd\	qui
=59	=59	=59	=59	=59	=59	=59	=59	=59
!LO:PB:g=original	!	!	!	!	!LO:LB:g=original	!	!	!
4Cn/	tol-	.	4A\	tol-	4f#X\	tol-	4dd\	tol-
4C/	-lis	.	4A\	-lis	4f#\	-lis	4dd\	-lis
8r	.	.	8r	.	8r	.	8r	.
8C/	pec-	.	8A\	pec-	8f#\	pec-	8dd\	pec-
=60	=60	=60	=60	=60	=60	=60	=60	=60
!	!	!	!	!	!LO:SIC:v:s=4f#\	!	!	!
4C/	-ca-	.	4A\	-ca-	4f\	-ca-	4dd\	-ca-
!	!	!	!	!	!LO:SIC:v:s=4f#\	!	!	!
4C/	-ta	.	4A\	-ta	4f\	-ta	4dd\	-ta
8r	.	.	8r	.	8r	.	8r	.
!	!	!	!	!	!LO:SIC:v:s=8f#\	!	!	!
8C/	pec-	.	8A\	pec-	8f\	pec-	8dd\	pec-
=61	=61	=61	=61	=61	=61	=61	=61	=61
4BB-X/	-ca-	.	4G\	-ca-	4g\	-ca-	4dd\	-ca-
4AA/	.	.	4c\	.	4f#X\	.	4ee-X\	.
4GG/	-ta	.	4B-X\	-ta	4g\	-ta	4dd\	-ta
=62	=62	=62	=62	=62	=62	=62	=62	=62
!	!	!	!LO:SIC:v:s=4B-	!	!	!	!	!
!	!	!	!	!	!	!	!LO:LB:g=original	!
4D\	mun-	.	4B\	mun-	4g\	mun-	4dd\	mun-
4D\	-di	.	4A\	-di	4f#X\	-di	4dd\	-di.
4r	.	.	4r	.	4r	.	4r	.
=63	=63	=63	=63	=63	=63	=63	=63	=63
!	!	!LO:DY:a:t=p&colon;	!	!	!LO:N:vis=00	!	!	!
4.BB-X/	Sus-	p	4.d\	sus-	0.r	.	4.ffn\	sus-
8AA/	-ci-	.	8c\	-ci-	.	.	8ee-X\	-ci-
4BB-/	-pe	.	4B-X\	-pe	.	.	4dd\	-pe
=64	=64	=64	=64	=64	=64-	=64	=64	=64
*	*	*	*	*	*	*	*	*ij
!	!	!	!	!	!	!	!LO:SIC:v:s=4.ee-	!
4.F\	sus-	.	4.c\	sus-	.	.	4.ee\	sus-
!	!	!	!LO:SIC:v:s=8B-	!	!	!	!	!
8F\	-ci-	.	8B\	-ci-	.	.	8dd\	-ci-
4F\	-pe	.	4A\	-pe	.	.	4cc\	-pe
=65	=65	=65	=65	=65	=65-	=65	=65	=65
!	!	!	!LO:LB:g=original	!	!	!	!	!
4.F\	sus-	.	4.A\	sus-	.	.	4.cc\	sus-
8F\	-ci-	.	8B-X\	-ci-	.	.	8dd\	-ci-
!	!	!	!	!	!	!	!LO:SIC:v:s=4.ee-	!
4F\	-pe	.	4c\	-pe	.	.	4ee\	-pe
=66	=66	=66	=66	=66	=66-	=66	=66	=66
!	!	!	!LO:SIC:v:s=4.B-	!	!	!	!	!
4.B-X\	sus-	.	4.B\	sus-	.	.	4.dd\	sus-
8F\	-ci-	.	8c\	-ci-	.	.	8ee\	-ci-
!	!	!	!	!	!	!	!	!
4BB-X/	-pe	.	4d\	-pe	.	.	4ff\	-pe
*	*	*	*	*	*	*	*	*Xij
=67	=67	=67	=67	=67	=67	=67	=67	=67
!	!	!LO:DY:a:t=f&colon;	!	!	!	!	!	!
2AA/	de-	f	2c\	de-	2f\	de-	2ee-X\	de-
!LO:SIC:v:s=4BB-/	!	!	!	!	!	!	!	!
4BB/	-pre-	.	4B-X\	-pre-	4f\	-re-	4dd\	-pre-
=68	=68	=68	=68	=68	=68	=68	=68	=68
8AA/L	-ca-	.	2f\	-ca-	2e-X\	-ca-	2cc\	-ca-
8FF/	.	.	.	.	.	.	.	.
8GG/	.	.	.	.	.	.	.	.
8AA/J	.	.	.	.	.	.	.	.
!LO:SIC:v:s=4BB-/	!	!	!	!	!	!	!	!
4BB/	-ti-	.	4f\	-ti-	4d\	-ti-	4b\	-ti-
=69	=69	=69	=69	=69	=69	=69	=69	=69
!	!	!	!	!	!	!	!LO:LB:g=original	!
2.F\	-o-	.	4e-X\	-o-	4c\	-o-	4a\	-o-
.	.	.	4d\	.	4d\	.	4b-X\	.
!	!	!	!	!	!LO:SIC:v:s=4e-	!	!	!
.	.	.	4c\	.	4e\	.	4cc\	.
=70	=70	=70	=70	=70	=70	=70	=70	=70
!	!	!	!	!	!LO:LB:g=original	!	!LO:SIC:v:s=4b-	!
4D/	.	.	4B\	.	4d\	.	4b\	.
4C/	.	.	4A\	.	4e-X\	.	4cc\	.
!LO:SIC:v:s=4BB-/	!	!	!	!	!	!	!	!
4BB/	-nem	.	4B\	-nem	4f\	-nem	4dd\	-nem
=71	=71	=71	=71	=71	=71	=71	=71	=71
4E-X\	no-	.	4c\	no-	8g\L	no-	8ee-X\L	no-
.	.	.	.	.	16f\L	.	16dd\L	.
!	!	!	!	!	!LO:SIC:v:s=16e-	!	!	!
.	.	.	.	.	16e\JJ	.	16cc\JJ	.
!	!	!	!	!	!	!	!LO:SIC:v:s=4b-	!
4F\	.	.	2F/	.	4d\	.	4b\	.
4FF/	.	.	.	.	4c\	.	4a\	.
=72	=72	=72	=72	=72	=72	=72	=72	=72
!LO:SIC:v:s=4BB-/	!	!	!	!	!	!	!LO:SIC:v:s=4b-	!
4BB/	-stram	.	4F/	-stram	4d\	-stram	4b\	-stram
4r	.	.	4r	.	4r	.	4r	.
!LO:SIC:v:s=4B-\	!	!	!	!	!	!	!	!
4B\	qui	.	4B-X\	qui	4f\	qui	4dd\	qui
=73	=73	=73	=73	=73	=73	=73	=73	=73
!	!	!	!LO:LB:g=original	!	!	!	!	!
4Bn\	se-	.	4A-X/	se-	4f\	se-	4dd\	se-
4B\	-des	.	4A-/	-des	4f\	-des	4dd\	-des
4B\	ad	.	4A-/	ad	4f\	ad	4dd\	ad
=74	=74	=74	=74	=74	=74	=74	=74	=74
!LO:LB:g=original	!	!	!	!	!	!	!	!
4.c\	dex-	.	4.G/	dex-	4.g\	dex-	4.ee-X\	dex-
8G\	-te-	.	8G/	-te-	8f\	-te-	8dd\	-te-
4C/	-ram	.	4G/	-ram	4e-X\	-ram	4cc\	-ram
=75	=75	=75	=75	=75	=75	=75	=75	=75
4C/	ad-	.	4G/	ad	4g\	ad	4ee\	ad
4BBn/	-dex-	.	4A/	dex-	4f\	dex-	4dd\	dex-
!	!	!	!	!	!LO:SIC:v:s=8e-\	!	!	!
16C/LL	-te-	.	8G/	-te-	8e\	-te-	8cc\	-te-
16D/JJ	.	.	.	.	.	.	.	.
!	!	!	!	!	!LO:SIC:v:s=8e-\	!	!	!
16E-X\LL	-ram	.	8G/	-ram	8e\	-ram	8cc\	-ram
16F\JJ	.	.	.	.	.	.	.	.
=76	=76	=76	=76	=76	=76	=76	=76	=76
!	!	!	!	!	!	!	!LO:LB:g=original	!
!	!	!	!	!	!LO:SIC:v:s=4e-\	!	!	!
4G\	Pa-	.	4G/	Pa-	4e\	Pa-	4cc\	[[no]]pa-
4GG/	-tris	.	4G/	-tris	4d\	-tris	4bn\	-[[stram]]tris
4r	.	.	4r	.	4r	.	4r	.
=77	=77	=77	=77	=77	=77	=77	=77	=77
!	!	!	!	!	!LO:LB:g=original	!	!	!
2BBn/	mi-	.	2d\	mi-	2a-X\	mi-	2ff\	mi-
4C/	-se-	.	4c\	-se-	4g\	-se-	4ee-X\	-se-
=78	=78	=78	=78	=78	=78	=78	=78	=78
4A-X\	-re-	.	4Bn\	-re-	4f\	-re-	4dd\	-re-
4Bn\	.	.	4d\	.	4a\	.	4ff\	.
4c\	-re	.	4c\	-re	4g\	-re	4ee\	-re
=79	=79	=79	=79	=79	=79	=79	=79	=79
4F\	no-	.	4A-X/	no-	8f\L	no-	8dd\L	no-
.	.	.	.	.	16a\L	.	16ff\L	.
.	.	.	.	.	16f\JJ	.	16dd\JJ	.
4G\	.	.	2G/	.	4e\	.	4cc\	.
4GG/	.	.	.	.	4d\	.	4bn\	.
=80	=80	=80	=80	=80	=80	=80	=80	=80
!	!	!	!LO:LB:g=original	!	!	!	!	!
4C/	-bis	.	4G/	-bis	4e\	-bis	2cc\	-bis
4r	.	.	4r	.	4r	.	.	.
4r	.	.	4r	.	4r	.	4r	.
=81	=81	=81	=81	=81	=81	=81	=81	=81
!LO:LB:g=original	!	!	!	!	!	!	!	!
2BBn/	mi-	.	2d\	mi-	2a-X\	mi-	2ff\	mi-
4C/	-se-	.	4c\	-se-	4g\	-se-	4ee\	-se-
=82	=82	=82	=82	=82	=82	=82	=82	=82
4A-X\	-re-	.	4Bn\	-re-	4f\	-re-	4dd\	-re-
4Bn\	.	.	4d\	.	4a\	.	4ff\	.
4c\	-re	.	4c\	-re	4g\	-re	4ee\	-re
=83	=83	=83	=83	=83	=83	=83	=83	=83
!	!	!	!	!	!	!	!LO:LB:g=original	!
4F\	no-	.	4A-X/	no-	8f\L	no-	8dd\L	no-
.	.	.	.	.	16a\L	.	16ff\L	.
.	.	.	.	.	16f\JJ	.	16ee\JJ	.
4G\	.	.	2G/	.	4e\	.	4cc\	.
4GG/	.	.	.	.	4d\	.	4bn\	.
=84	=84	=84	=84	=84	=84	=84	=84	=84
2C/	-bis	.	2G/	-bis	2e\	-bis	2cc\	-bis
4r	.	.	4r	.	4r	.	4r	.
=85||	=85||	=85||	=85||	=85||	=85||	=85||	=85||	=85||
*M2/2	*	*	*M2/2	*	*M2/2	*	*M2/2	*
*met(c|)	*	*	*met(c|)	*	*met(c|)	*	*met(c|)	*
!	!	!	!LO:LB:g=original	!	!	!	!LO:LB:g=original	!
!LO:TX:a:t=mod&colon;	!	!	!LO:TX:a:t=mode&colon;	!	!LO:LB:g=original	!	!LO:TX:a:t=andantino	!
4.c\	Quo-	.	4.c\	Quo-	4.g\	Quo-	4.ee\	Quo-
8G\	-ni-	.	8d\	-ni-	8f\	-ni-	8ff\	-ni-
4E\	-am	.	4e\	-am	4e\	-am	4gg\	-am
4G\	tu	.	4d\	tu	4f\	tu	4ff\	tu
=86	=86	=86	=86	=86	=86	=86	=86	=86
4c\	so-	.	4c\	so-	2g\	so-	4ee\	so-
4G\	.	.	4B\	.	.	.	4dd\	.
4E\	-lus	.	4c\	-lus	4g\	-lus	4ee\	-lus
4D\	tu	.	4B\	tu	4g\	tu	4ff\	tu
=87	=87	=87	=87	=87	=87	=87	=87	=87
2C/	so-	.	4c\	so-	2.g\	so-	4ee\	so-
.	.	.	8B\L	.	.	.	8dd\L	.
.	.	.	8c\J	.	.	.	8ee\J	.
4BB/	.	.	4d\	.	.	.	4ff\	.
4C/	-lus	.	4c\	-lus	4g\	-lus	4ee\	-lus
=88	=88	=88	=88	=88	=88	=88	=88	=88
4G\	San-	.	4c\	San-	4g\	San-	4ee\	San-
4GG/	-ctus	.	4B\	-ctus	4g\	-ctus	4dd\	-ctus
4r	.	.	4r	.	4r	.	4r	.
4G\	tu	.	8B\L	tu	4g\	tu	8dd\L	tu
.	.	.	8c\J	.	.	.	8ee\J	.
=89	=89	=89	=89	=89	=89	=89	=89	=89
2.G\	so-	.	4d\	so-	2.g\	so-	4ff\	so-
.	.	.	8c\L	.	.	.	8ee\L	.
.	.	.	8d\J	.	.	.	8ff\J	.
.	.	.	4e\	.	.	.	4gg\	.
4G\	-lus	.	4d\	-lus	4g\	-lus	4ff\	-lus
=90	=90	=90	=90	=90	=90	=90	=90	=90
!	!	!	!LO:LB:g=original	!	!	!	!LO:LB:g=original	!
8C/	Do-	.	8d\	Do-	8g\	Do-	8ff\	Do-
8C/	-mi-	.	8c\	-mi-	8g\	-mi-	8ee\	-mi-
4C/	-nus	.	4c\	-nus	4g\	-nus	4ee\	-nus
4r	.	.	4r	.	4r	.	4r	.
4C/	tu	.	4c\	tu	4g\	tu	4ee\	tu
=91	=91	=91	=91	=91	=91	=91	=91	=91
!LO:LB:g=original	!	!	!	!	!	!	!	!
2C/	so-	.	2c\	so-	2g\	so-	2ee\	so-
4BB/	-lus	.	4G/	-lus	4f\	-lus	4dd\	-lus
4C/	al-	.	4G/	al-	4e\	al-	4cc\	al-
=92	=92	=92	=92	=92	=92	=92	=92	=92
4G\	-tiſ-	.	4.Bn\	-tiſ-	4.f\	-tiſ-	4.dd\	-tiſ-
8D\	.	.	.	.	.	.	.	.
8BB/	-si-	.	8B\	-si-	8f\	-si-	8dd\	-si-
4GG/	-mus	.	4B\	-mus	4f\	-mus	4dd\	-mus
4G\	tu	.	4B\	tu	4f\	tu	4dd\	tu
=93	=93	=93	=93	=93	=93	=93	=93	=93
2G\	so-	.	2B\	so-	2f\	so-	2dd\	so-
4c\	-lus	.	4G/	-lus	4e\	-lus	4cc\	-lus
4G\	al-	.	4G/	al-	4d\	al-	4b\	al-
=94	=94	=94	=94	=94	=94	=94	=94	=94
4.c\	-tiſ-	.	4.G/	-tiſ-	4.e\	-tiſ-	4.cc\	-tiſ-
8G\	-si-	.	8B/	-si-	8f\	-si-	8dd\	-si-
2C/	-mus	.	2c\	-mus	2g\	-mus	2ee\	-mus
=95	=95	=95	=95	=95	=95	=95	=95	=95
4F\	Je-	.	1c	Je-	1a	Je-	1ff	Je-
4G\	.	.	.	.	.	.	.	.
4A\	.	.	.	.	.	.	.	.
4B\	.	.	.	.	.	.	.	.
=96	=96	=96	=96	=96	=96	=96	=96	=96
4c\	.	.	1c	-su	1g	-su	1ee	-su
4G\	.	.	.	.	.	.	.	.
4E\	.	.	.	.	.	.	.	.
4C\	-su	.	.	.	.	.	.	.
=97	=97	=97	=97	=97	=97	=97	=97	=97
!	!	!	!	!	!	!	!LO:LB:g=original	!
4GG/	Je-	.	1B	Je-	1f	Je-	1dd	Je-
4BB/	.	.	.	.	.	.	.	.
4D/	.	.	.	.	.	.	.	.
4G/	.	.	.	.	.	.	.	.
=98	=98	=98	=98	=98	=98	=98	=98	=98
!LO:LB:g=original	!	!	!LO:LB:g=original	!	!	!	!	!
4C\	.	.	1G	-su	1e	-su	1cc	-su
4E\	.	.	.	.	.	.	.	.
4G\	.	.	.	.	.	.	.	.
4c\	-su	.	.	.	.	.	.	.
=99	=99	=99	=99	=99	=99	=99	=99	=99
4F\	Chri-	.	4F/	Chri-	4d\	Chri-	4a\	Chri-
4D\	.	.	4A/	.	4f\	.	4dd\	.
4G\	.	.	2G/	.	4e\	.	4cc\	.
4GG/	.	.	.	.	4d\	.	4b\	.
=100	=100	=100	=100	=100	=100	=100	=100	=100
!	!	!	!	!	!LO:LB:g=original	!	!	!
2C/	-ste.	.	2G/	-ste.	2e\	-ste.	2cc\	-ste.
2c\	Cum	.	2G/	Cum	2g\	Cum	2ee\	Cum
=101	=101	=101	=101	=101	=101	=101	=101	=101
2B\	San-	.	2G/	San-	2f\	San-	2dd\	San-
2c\	-ctio	.	2G/	-ctio	2e\	-cto	2cc\	-cto
=102	=102	=102	=102	=102	=102	=102	=102	=102
2G\	Spi-	.	2G/	Sp-	2d\	Spi-	2b\	Spi-
2F#X\	-ri-	.	2A/	-ri-	2e\	-ri-	2cc\	-ri-
=103	=103	=103	=103	=103	=103	=103	=103	=103
2G\	-tu	.	2G/	-tu	2d\	-tu	2b\	-tu.
2C/	Cum	.	2c\	cum	2e\	cum	2gg\	Cum
=104	=104	=104	=104	=104	=104	=104	=104	=104
2BB/	S(an)-	.	2G/	S(an)-	2d\	San-	2ff\	San-
2C/	-cto	.	2G/	-cto	2c\	-cto	2ee\	-cto
=105	=105	=105	=105	=105	=105	=105	=105	=105
!LO:TX:b:t=ada&colon;	!	!	!LO:TX:a:t=adagio	!	!LO:TX:a:t=adagio	!	!LO:TX:b:t=adagio	!
1G	Spi-	.	1G	Spi-	1B	Spi-	1dd	Spi-
=106	=106	=106	=106	=106	=106	=106	=106	=106
!	!	!	!	!	!	!	!LO:LB:g=original	!
2.F#X\	.	.	2.A/	.	2.c/	.	2.ee-X\	.
4F#\	-ri-	.	4A/	-ri-	4c/	-ri-	4ee-\	-ri-
=107	=107	=107	=107	=107	=107	=107	=107	=107
!LO:LB:g=original	!	!	!	!	!	!	!	!
2G\	-tu	.	1G	-tu	1B;	-tu	2dd\	-tu
!	!	!	!	!	!	!	!LO:TX:t=P:problem=pojedyncza kreska	!
2r;	.	.	.	.	.	.	2r;	.
=108||	=108||	=108||	=108||	=108||	=108||	=108||	=108||	=108||
!	!	!	!LO:TX:a:t=allo	!	!LO:TX:a:t=allô	!	!LO:TX:a:t=allo	!
!	!	!	!LO:LB:g=original	!	!LO:LB:g=original	!	!	!
4C\	In	.	1G	In	1e	In	1cc	In
4D\	.	.	.	.	.	.	.	.
4E\	.	.	.	.	.	.	.	.
4F\	.	.	.	.	.	.	.	.
=109	=109	=109	=109	=109	=109	=109	=109	=109
4G\	glo-	.	2.B\	glo-	2.f\	glo-	2.dd\	glo-
4GG/	.	.	.	.	.	.	.	.
4AA/	.	.	.	.	.	.	.	.
4BB/	-ri-	.	4B\	-ri-	4f\	-ri-	4dd\	-ri-
=110	=110	=110	=110	=110	=110	=110	=110	=110
2C/	-a	.	2c\	-a	2g\	-a	2ee\	-a
2C/	De-	.	2c\	De-	2g\	De-	2ee\	De-
=111	=111	=111	=111	=111	=111	=111	=111	=111
2BB/	.	.	2.G/	.	2.d\	.	4ff\	.
.	.	.	.	.	.	.	8ee\L	.
.	.	.	.	.	.	.	8ff\J	.
4BB/	.	.	.	.	.	.	4dd\	.
4GG/	-i	.	4G/	-i	4d\	-i	4gg\	-i
=112	=112	=112	=112	=112	=112	=112	=112	=112
2.C/	Pa-	.	2.G/	Pa-	4c\	Pa-	4ee\	Pa-
.	.	.	.	.	4e\	.	4cc\	.
.	.	.	.	.	4c\	.	4ee\	.
4AA/	.	.	4A/	.	4d\	.	4ff#X\	.
=113	=113	=113	=113	=113	=113	=113	=113	=113
2GG/	-tris	.	2B\	-tris	2d\	-tris	2gg\	-tris
2G\	a-	.	2B\	a-	2d\	a-	2gg\	a-
=114	=114	=114	=114	=114	=114	=114	=114	=114
2A\	.	.	2c\	.	1d	.	2ff#X\	.
2B\	.	.	2d\	.	.	.	2ffn\	.
=115	=115	=115	=115	=115	=115	=115	=115	=115
!LO:LB:g=original	!	!	!	!	!	!	!LO:LB:g=original	!
2c\	-men	.	2G/	-men	2c\	-men	2ee\	-men
2c\	a-	.	2c\	a-	2g\	a-	2ee\	a-
=116	=116	=116	=116	=116	=116	=116	=116	=116
!	!	!	!LO:LB:g=original	!	!LO:LB:g=original	!	!	!
2B\	.	.	2d\	.	2g\	.	2ff\	.
2B-X\	.	.	2c\	.	2b-X\	.	2gg\	.
=117	=117	=117	=117	=117	=117	=117	=117	=117
2A\	-men	.	2c\	-men	2a\	-men	2ff\	-men
2A\	a-	.	2c\	a-	2a\	a-	2ff\	a-
=118	=118	=118	=118	=118	=118	=118	=118	=118
2Bn\	.	.	2d\	.	1g	.	2ff\	.
2c\	-men	.	2c\	.	.	.	2ee\	.
=119	=119	=119	=119	=119	=119	=119	=119	=119
4B\	a-	.	2B\	-men	2g\	-men	2dd\	.
4G\	.	.	.	.	.	.	.	.
4c\	.	.	2c\	a-	2g\	a-	2ee\	-men
4C/	.	.	.	.	.	.	.	.
=120	=120	=120	=120	=120	=120	=120	=120	=120
4F\	.	.	2d\	.	1g	.	2ff\	a-
4D\	.	.	.	.	.	.	.	.
4G\	.	.	2B\	.	.	.	2dd\	.
4GG/	.	.	.	.	.	.	.	.
=121	=121	=121	=121	=121	=121	=121	=121	=121
2C/	-men	.	2c\	-men	2g\	-men	2ee\	-men
2GG/	a-	.	2B\	a-	2g\	a-	2dd\	a-
=122	=122	=122	=122	=122	=122	=122	=122	=122
2C/	-men	.	2e\	-men	2g\	-men	2cc\	-men
2GG/	a-	.	2B\	a-	2g\	a-	2dd\	a-
=123	=123	=123	=123	=123	=123	=123	=123	=123
!	!	!	!LO:TX:b:t=Seque Credo Verte	!	!	!	!	!
1C	-men	.	1c	-men.	1g	-men	2ee\	-men
.	.	.	.	.	.	.	2r	.
==	==	==	==	==	==	==	==	==
*-	*-	*-	*-	*-	*-	*-	*-	*-
!!!system-decoration: [(s1,s2,s3,s4)]
!!!ENC: Kamil Watkowski
!!!END: 2021-08-06
